!!! Melodie: eigene
!!! Typ: Lied
**kern	**silbe	**silbe	**silbe	**silbe	**silbe
*clefG2	*lang:DE	*lang:DE	*lang:DE	*lang:DE	*lang:DE
*k[b-]	*	*	*	*	*
*M3/4	*	*	*	*	*
4r	%	%	%	%	%
4r	%	%	%	%	%
4a	Macht	Er	O	Macht	Komm,
2cc	hoch	ist	Wohl	hoch	O
4b-	die	ge#	dem	die	mein
2a	Tür,	#recht,	Land,	Tür,	Hei#
4g	die	ein	O	die	#land
(4f	Tor’	Hel#	Wohl	Tor’	Je#
4g)	=	=	=	=	=
4a	macht	#fer	der	macht	#su
2g	weit!	wert,	Stadt,	weit,	Christ,
=	=	=	=	=	=
4cc	es	Sanft#	So	Eur'	mein
2b-	kommt	#mü#	die#	Herz	Her#
4b-	der	#tig#	#sen	zum	#zens
2a	Herr	#keit	Kö#	Tem#	Tür
4a	der	ist	#nig	#pel	dir
(4g	Herr#	sein	bei	zu#	of#
4f)	|	|	|	|	|
4g	#lich#	Ge#	sich	#be#	#fen
2f	#keit,	#fährt,	hat;	#reit;	ist:
=	=	=	=	=	=
4a	ein	sein	Wohl	die	Ach,
2g	Kö#	Kö#	al#	Pal#	zieh
4g	#nig	#nigs#	#len	#men	mit
(4a	al#	#kron'	Her#	der	dei#
4b)	|	|	|	|	|
4cc	#ler	ist	#zen	Gott#	#ner
(4cc	Kö#	Hei#	ins#	#se#	Gna#
4dd)	|	|	|	|	|
4b	#nig#	#lig#	#ge#	#lig#	#de
2cc	#reich	#keit,	#mein,	#keit,	ein,
=	=	=	=	=	=
4g	ein	sein	da	steckt	dein’
2a	Hei#	Szep#	die#	hin	Freund#
4g	#land	#ter	#ser	mit	#lich#
(4a	al#	ist	Kö#	An#	#keit
4b)	|	|	|	|	|
4cc	#ler	Barm#	#nig	#dacht,	auch
(4cc	Welt	#her#	zie#	Lust	uns
4dd)	|	|	|	|	|
4b	zu#	#zig#	#het	und	er#
2cc	#gleich,	#keit;	ein!	Freud’:	#schein.
=	=	=	=	=	=
4cc	Der	all	Er	so	dein
2dd	Heil	uns#	ist	kommt	heil'#
4cc	und	#'re	die	der	#ger
2dd	Le#	Not	rech#	Kö#	Geist
4cc	#ben	zu	#te	#nig	uns
(4dd	mit	End’	Freu#	auch	führ'
4cc)	|	|	|	|	|
4b-	sich	er	#den#	zu	und
2a	bringt;	bringt,	#sonn',	euch,	leit'
=	=	=	=	=	=
4cc	Der#	der#	bringt	Ja	den
2dd	#hal#	#hal#	mit	Heil	Weg
4cc	#ben	#ben	sich	und	zur
2dd	jauchzt,	jauchzt,	lau#	Le#	ew'#
4cc	mit	mit	#ter	#ben	#gen
(4dd	Freu#	Freu#	Freud’	mit	See#
4cc)	|	|	|	|	|
4b-	#den	#den	und	zu#	#lig#
2a	singt:	singt:	Wonn’.	#gleich.	#keit.
=	=	=	=	=	=
4cc	ge#	ge#	Ge#	ge#	dem
2f	#lo#	#lo#	#lo#	#lo#	Na#
4f	#bet	#bet	#bet	#bet	#men
2b-	sei	sei	sei	sei	dein,
4a	mein	mein	mein	mein	O
2.g	Gott,	Gott,	Gott,	Gott,	Herr,
=	=	=	=	=	=
4r	%	%	%	%	%
4r	%	%	%	%	%
4cc	mein	mein	mein	voll	sei
2b-	Schöp#	Hei#	Trö#	Rat,	e#
4a	#fer	#land,	#ster	voll	#wig
(4g	reich	groß	früh	Tat,	Preis'
4f)	|	|	|	|	|
4g	von	von	und	voll	und
2.;f	Rat!	Tat!	spät.	Gnad’.	Ehr’!
==	==	==	==	==	==
*-	*-	*-	*-	*-	*-
